!!!COM:      Bach, Johann Sebastian
!!!CDT:      1685/03/31/-1750/07/28/
!!!OPR@@GER: Das wohltemperirte Clavier
!!!OVM@@GER: Band I
!!!OPR@ENG:  Well-Tempered Clavier
!!!OVM@ENG:  Book I
!!!OTL:      Prelude
!!!OKY:      B-flat major
!!!ONM:      no. 21
!!!SCT:      BWV 866
!!!OMV:      1
**kern	**kern	**kern	**kern
*clefF4	*	*	*clefG2
*k[b-e-]	*	*	*k[b-e-]
*B-:	*	*	*B-:
*M4/4	*	*	*M4/4
*met(c)	*	*	*met(c)
*MM68	*MM68	*MM68	*MM68
=1-	=1-	=1-	=1-
8B-	1ryy	1ryy	32r
.	.	.	32f
.	.	.	32dd
.	.	.	32f
8A	.	.	32r
.	.	.	32f
.	.	.	32cc
.	.	.	32f
8B-	.	.	32r
.	.	.	32f
.	.	.	32dd
.	.	.	32f
8F	.	.	32r
.	.	.	32a
.	.	.	32ff
.	.	.	32a
8G	.	.	32r
.	.	.	32d
.	.	.	32b-
.	.	.	32d
8F	.	.	32r
.	.	.	32d
.	.	.	32a
.	.	.	32d
8G	.	.	32r
.	.	.	32d
.	.	.	32b-
.	.	.	32d
8D	.	.	32r
.	.	.	32f
.	.	.	32dd
.	.	.	32f
=2	=2	=2	=2
8E-	1ryy	1ryy	32r
.	.	.	32B-
.	.	.	32g
.	.	.	32B-
8D	.	.	32r
.	.	.	32B-
.	.	.	32f
.	.	.	32B-
8E-	.	.	32r
.	.	.	32B-
.	.	.	32g
.	.	.	32B-
8BB-	.	.	32r
.	.	.	32d
.	.	.	32b-
.	.	.	32d
8C	.	.	32r
.	.	.	32d
.	.	.	32e-
.	.	.	32d
8BB-	.	.	32r
.	.	.	32d
.	.	.	32g
.	.	.	32d
8AA	.	.	32r
.	.	.	32c
.	.	.	32f
.	.	.	32c
8FF	.	.	32r
.	.	.	32A
.	.	.	32e-
.	.	.	32A
=3	=3	=3	=3
8B-	1ryy	1ryy	32r
.	.	.	32d
.	.	.	32f
.	.	.	32d
8F	.	.	32r
.	.	.	32B-
.	.	.	32d
.	.	.	32B-
8D	.	.	32r
.	.	.	32F
.	.	.	32B-
.	.	.	32F
8BB-	.	.	32r
.	.	.	32D
.	.	.	32F
.	.	.	32D
2ryy	.	.	32GG
.	.	.	32D
.	.	.	32En
.	.	.	32F#
.	.	.	32G
.	.	.	32A
.	.	.	32B-
.	.	.	32c
.	.	.	32B-
.	.	.	32G
.	.	.	32A
.	.	.	32B-
.	.	.	32c
.	.	.	32d
.	.	.	32en
.	.	.	32fn
=4	=4	=4	=4
8c	1ryy	1ryy	32r
.	.	.	32en
.	.	.	32g
.	.	.	32e
8G	.	.	32r
.	.	.	32c
.	.	.	32e
.	.	.	32c
8En	.	.	32r
.	.	.	32G
.	.	.	32c
.	.	.	32G
8C	.	.	32r
.	.	.	32En
.	.	.	32G
.	.	.	32E
2ryy	.	.	32AA
.	.	.	32En
.	.	.	32F
.	.	.	32G
.	.	.	32A
.	.	.	32Bn
.	.	.	32c
.	.	.	32d
.	.	.	32c
.	.	.	32A
.	.	.	32Bn
.	.	.	32c
.	.	.	32d
.	.	.	32en
.	.	.	32f
.	.	.	32g
=5	=5	=5	=5
8d	1ryy	1ryy	32r
.	.	.	32f
.	.	.	32a
.	.	.	32f
8A	.	.	32r
.	.	.	32d
.	.	.	32f
.	.	.	32d
8F	.	.	32r
.	.	.	32A
.	.	.	32d
.	.	.	32A
8D	.	.	32r
.	.	.	32F
.	.	.	32A
.	.	.	32F
8BB-	.	.	32r
.	.	.	32F
.	.	.	32d
.	.	.	32F
8GG	.	.	32r
.	.	.	32F
.	.	.	32B-
.	.	.	32F
8AA	.	.	32r
.	.	.	32F
.	.	.	32c
.	.	.	32F
8FF	.	.	32r
.	.	.	32F
.	.	.	32e-
.	.	.	32F
=6	=6	=6	=6
8BB-	1ryy	1ryy	32r
.	.	.	32F
.	.	.	32d
.	.	.	32F
8GG	.	.	32r
.	.	.	32F
.	.	.	32B-
.	.	.	32F
8AA	.	.	32r
.	.	.	32F
.	.	.	32c
.	.	.	32F
8FF	.	.	32r
.	.	.	32F
.	.	.	32e-
.	.	.	32F
8BB-	.	.	32r
.	.	.	32F
.	.	.	32d
.	.	.	32F
8BBn	.	.	32r
.	.	.	32G
.	.	.	32f
.	.	.	32G
8C	.	.	32r
.	.	.	32G
.	.	.	32en
.	.	.	32G
8C#	.	.	32r
.	.	.	32A
.	.	.	32g
.	.	.	32A
=7	=7	=7	=7
8D	1ryy	1ryy	32r
.	.	.	32A
.	.	.	32f
.	.	.	32A
8DD	.	.	32r
.	.	.	32B-
.	.	.	32a
.	.	.	32B-
8EEn	.	.	32r
.	.	.	32B-
.	.	.	32g
.	.	.	32B-
8En	.	.	32r
.	.	.	32c
.	.	.	32b-
.	.	.	32c
8F	.	.	32r
.	.	.	32c
.	.	.	32a
.	.	.	32c
8FF	.	.	32r
.	.	.	32d
.	.	.	32cc
.	.	.	32d
8GG	.	.	32r
.	.	.	32d
.	.	.	32b-
.	.	.	32d
8G	.	.	32r
.	.	.	32en
.	.	.	32dd
.	.	.	32e
=8	=8	=8	=8
1ryy	1ryy	1ryy	32A
.	.	.	32c
.	.	.	32d
.	.	.	32en
.	.	.	32f
.	.	.	32g
.	.	.	32a
.	.	.	32b-
.	.	.	32cc
.	.	.	32b-
.	.	.	32a
.	.	.	32g
.	.	.	32f
.	.	.	32e-
.	.	.	32d
.	.	.	32c
.	.	.	32d
.	.	.	32B-
.	.	.	32A
.	.	.	32G
.	.	.	32F
.	.	.	32E-
.	.	.	32D
.	.	.	32C
.	.	.	32BB-
.	.	.	32C
.	.	.	32D
.	.	.	32C
.	.	.	32BB-
.	.	.	32AA
.	.	.	32GG
.	.	.	32FF
=9	=9	=9	=9
8EEn	1ryy	1ryy	32r
.	.	.	32c
.	.	.	32b-
.	.	.	32c
8FF	.	.	32r
.	.	.	32c
.	.	.	32a
.	.	.	32c
8DD	.	.	32r
.	.	.	32B-
.	.	.	32a
.	.	.	32B-
8EEn	.	.	32r
.	.	.	32B-
.	.	.	32g
.	.	.	32B-
8FF	.	.	32r
.	.	.	32A
.	.	.	32g
.	.	.	32A
8AA	.	.	32r
.	.	.	32A
.	.	.	32f
.	.	.	32A
8BB-	.	.	32r
.	.	.	32G
.	.	.	32f
.	.	.	32G
8C	.	.	32r
.	.	.	32G
.	.	.	32en
.	.	.	32G
=10	=10	=10	=10
8FF	1ryy	1ryy	32A
.	.	.	32c
.	.	.	32f
.	.	.	32c
8r	.	.	32A
.	.	.	32f
.	.	.	32c
.	.	.	32A
4r	.	.	32F
.	.	.	32A
.	.	.	32c
.	.	.	32A
.	.	.	32F
.	.	.	32c
.	.	.	32A
.	.	.	32F
2ryy	.	.	32C
.	.	.	32F
.	.	.	32En
.	.	.	32D
.	.	.	32C
.	.	.	32BB-
.	.	.	32AA
.	.	.	32GG
.	.	.	32FF
.	.	.	32AA
.	.	.	32C
.	.	.	32F
.	.	.	32A
.	.	.	32c
.	.	.	32e-
.	.	.	32g-
=11	=11	=11	=11
*	*	*staff:4	*
*	*	*clefG2	*
*	*	*k[b-e-]	*
8DD	1ryy	4ryy	4r
8r	.	.	.
8.D 8.F 8.B-	.	8.d	8.a- 8.b- 8.dd 8.ff
16D 16F 16B-	.	16d	16a- 16b- 16dd 16ff
4BBn 4D 4G	.	4g	4bn 4dd [4ff
4r	.	4ryy	32ff]
.	.	.	32gg
.	.	.	32aa-X
.	.	.	32gg
.	.	.	32ff
.	.	.	32ee-
.	.	.	32dd
.	.	.	32ee-
=12	=12	=12	=12
1ryy	1ryy	1ryy	32ff
.	.	.	32ee-
.	.	.	32dd
.	.	.	32cc
.	.	.	32bn
.	.	.	32cc
.	.	.	32dd
.	.	.	32cc
.	.	.	32bn
.	.	.	32a
.	.	.	32g
.	.	.	32a
.	.	.	32b
.	.	.	32a
.	.	.	32g
.	.	.	32f
.	.	.	32e-
.	.	.	32d
.	.	.	32c
.	.	.	32B-
.	.	.	32A-
.	.	.	32G
.	.	.	32F
.	.	.	32E-
.	.	.	32D
.	.	.	32C
.	.	.	32BBn
.	.	.	32AAn
.	.	.	32GG
.	.	.	32FF
.	.	.	32EE-
.	.	.	32DD
=13	=13	=13	=13
*	*staff:4	*	*staff:3
*	*	*	*clefF4
*	*clefG2	*	*
*	*k[b-e-]	*	*
4ryy	4ryy	4r	8CC
.	.	.	8r
8.E- 8.G 8.c	8.g	8.cc 8.ee-	8.C
16E- 16G 16c	16g	16b- 16cc 16ee-	16C
4F 4A 4c	4f	4a 4cc 4ee-	[4F
4ryy	4ryy	4r	32F]
.	.	.	32C
.	.	.	32D
.	.	.	32E-
.	.	.	32F
.	.	.	32G
.	.	.	32A
.	.	.	32B-
=14	=14	=14	=14
*	*	*	*clefG2
1ryy	1ryy	1ryy	32A
.	.	.	32G
.	.	.	32F
.	.	.	32G
.	.	.	32A
.	.	.	32B-
.	.	.	32c
.	.	.	32d
.	.	.	32c
.	.	.	32B-
.	.	.	32A
.	.	.	32B-
.	.	.	32c
.	.	.	32d
.	.	.	32e-
.	.	.	32f
.	.	.	32e-
.	.	.	32d
.	.	.	32c
.	.	.	32d
.	.	.	32e-
.	.	.	32f
.	.	.	32g
.	.	.	32a
.	.	.	32b-
.	.	.	32cc
.	.	.	32dd
.	.	.	32ee-
.	.	.	32ff
.	.	.	32gg
.	.	.	32aa
.	.	.	32ff
=15	=15	=15	=15
*	*	*staff:2	*
4r	1ryy	4ryy	8bb-
.	.	.	8r
8.BB- 8.D 8.F 8.B-	.	8.f 8.a-	8.b- 8.dd
16BB- 16D 16F 16B-	.	16f 16a-	16b- 16dd
4E- 4G 4B-	.	4e- 4g	4b- 4dd
8.En 8.G 8.B-	.	8.g 8.b-	8.dd-
16E 16G 16c	.	16g 16b-	16cc
=16	=16	=16	=16
4F 4A 4c 4e-	1ryy	4f 4a	4cc
4ryy	.	4ryy	32a
.	.	.	32cc
.	.	.	32a
.	.	.	32f
.	.	.	32e-
.	.	.	32f
.	.	.	32a
.	.	.	32cc
2ryy	.	2ryy	32a
.	.	.	32cc
.	.	.	32a
.	.	.	32f
.	.	.	32e-
.	.	.	32f
.	.	.	32a
.	.	.	32cc
.	.	.	32gg-
.	.	.	32ff
.	.	.	32ee-
.	.	.	32dd-
.	.	.	32cc
.	.	.	32b-
.	.	.	32a
.	.	.	32gn
=17	=17	=17	=17
2ryy	2ryy	2ryy	32a
.	.	.	32f
.	.	.	32a
.	.	.	32cc
.	.	.	32ee-
.	.	.	32gg-
.	.	.	32aa
.	.	.	32ccc
.	.	.	16.bb-
.	.	.	32cc
.	.	.	32dd-
.	.	.	32a
.	.	.	32b-
.	.	.	32en
4FF 4C 4E-	4F	4f 4b- 4cc	8c
.	.	.	8dn
4FF 4C 4E-	8F	4f 4a 4cc	4e-
.	8G	.	.
=18	=18	=18	=18
4BB- 4D 4F	4A-	4f 4b-	[4d
4ryy	4ryy	4ryy	32d]
.	.	.	32f
.	.	.	32d
.	.	.	32B-
.	.	.	32A-
.	.	.	32B-
.	.	.	32d
.	.	.	32f
2ryy	2ryy	2ryy	32d
.	.	.	32f
.	.	.	32d
.	.	.	32B-
.	.	.	32A-
.	.	.	32B-
.	.	.	32d
.	.	.	32f
.	.	.	32cc-
.	.	.	32a-X
.	.	.	32f
.	.	.	32d
.	.	.	32c-X
.	.	.	32A-
.	.	.	32F
.	.	.	32d
=19	=19	=19	=19
8G	1ryy	1ryy	[8e-W
8r	.	.	32e-]
.	.	.	32d
.	.	.	32c
.	.	.	32d
4ryy	.	.	32e-
.	.	.	32d
.	.	.	32c
.	.	.	32B-
.	.	.	32An
.	.	.	32B-
.	.	.	32c
.	.	.	32B-
2ryy	.	.	32A
.	.	.	32G
.	.	.	32F
.	.	.	32G
.	.	.	32A
.	.	.	32G
.	.	.	32F
.	.	.	32E-
.	.	.	32D
.	.	.	32E-
.	.	.	32F
.	.	.	32E-
.	.	.	32D
.	.	.	32C
.	.	.	32BB-
.	.	.	32AA
=20	=20	=20	=20
8BB-	1ryy	1ryy	32r
.	.	.	32D
.	.	.	32F
.	.	.	32D
8D	.	.	32r
.	.	.	32F
.	.	.	32B-
.	.	.	32F
8F	.	.	32r
.	.	.	32B-
.	.	.	32d
.	.	.	32B-
8B-	.	.	32r
.	.	.	32d
.	.	.	32f
.	.	.	32d
8d	.	.	32r
.	.	.	32f
.	.	.	32b-
.	.	.	32f
8f	.	.	32r
.	.	.	32b-
.	.	.	32dd
.	.	.	32b-
8b-	.	.	32r
.	.	.	32dd
.	.	.	32ff
.	.	.	32dd
8r	.	.	8bb-;
==	==	==	==
*-	*-	*-	*-
!!!AFR:  prelude
!!!EFL:  41/96
!!!END:  1994/01/20/
!!!VID:  1518074177 Bach, BWV 866-01
!!!AST:  Baroque
!!!OCY:  Deutschland
!!!ODT:  1722///
!!!PDT:  1801///
!!!EED:  Walter Hewlett
!!!ENC:  Walter Hewlett
!!!YOR:  Bach Gesellschaft Edition xiv
!!!AFT:  enhanced SCORE
!!!RDT:  2011/10/07/ by Andreas Kornstaedt using massScr2hmd
!!!SCA1: Thematisch-systematisches Verzeichnis der musikalischen Werke 
!!!SCA2: Johann Sebastian Bach: Bach-Werke-Verzeichnis (Schmieder)
!!!YEC1: Copyright 1994, 2000 Center for Computer Assisted Research 
!!!YEC2: in the Humanities
!!!YEM1: Rights to all derivative editions reserved.
!!!YEM2: Refer to licensing agreement for further details.
!!!YEN:  United States of America
!!!ref:  @{OTL}, @{SCT}
!!muse2ps: T^@{OTL} @{ONM} in @{OKY}^C^J.S. Bach\n@{SCT}-@{OMV}^
!!muse2ps: u^@{OPR@ENG}, @{OVM@ENG}^j
